X:1
T:019 - Boa Nova
T:Letra: William Edwin Entzminger (1859-1930)
T:Música: Albert Lister Peace (1844-1912)
M:4/4
L:1/8
Q:1/4=100
K:Ab
V:1
E2 | "Ab"E3E EF GA| "Eb"(A4 G2) G2| G3G GA Bc| "Eb7"e4 d2 d2| "Ab"c3c "C7"cB AG| "Fm"(B4 A2) A2| "Bbm"A3A AA GF| "Ab/Eb"E3F G2 A2| C6 "Eb7"B2| "Ab"A6|]
w: 1.~A-le-gre no-va nos che-gou:_ O gran-de Deus as-sim a-mou_ A to-doo mun-do pe-ca-dor,_ Que deu seu Fi-lho ben-fei-tor Em su-a re-den-ção.  
w: 2.~A-que-le,e pois, queem Cris-to crer,_ A vi-dae-ter-na pas-saa ter;_ Ja-mais a mor-te vai pro-var;_ No céu, po-rém, i-rá go-zar A ple-na sal-va-ção.  
w: 3.~Mis-ter é Cris-to co-nhe-cer,_ E de-leem tu-do de-pen-der,_ Guar-dar a su-a san-ta lei,_ E co-ro-á-lo nos-so Rei De to-doo co-ra-ção.  
w: 4.~Ó mun-do to-do,a Cris-to vem,_ Ao que con-ce-de to-doo bem,_ Que po-de-rá tor-nar fe-liz_ A ca-da po-voe seu pa-ís, Com su-a pro-te-ção!        
W:
W: 
W: 1. Alegre nova nos chegou:
W: O grande Deus assim amou
W: A todo o mundo pecador,
W: Que deu seu Filho benfeitor
W: Em sua redenção.
W: 
W: 2. Aquele, pois, que em Cristo crer,
W: A vida eterna passa a ter;
W: Jamais a morte vai provar;
W: No céu, porém, irá gozar
W: A plena salvação.
W: 
W:
W:
W: 3. Mister é Cristo conhecer,
W: E dele em tudo depender,
W: Guardar a sua santa lei,
W: E coroá-lo nosso Rei
W: De todo o coração.
W: 
W: 4. Ó mundo todo, a Cristo vem,
W: Ao que concede todo o bem,
W: Que poderá tornar feliz
W: A cada povo e seu país,
W: Com sua proteção!
W: 
W:         
W:





